X:1
T:Итальянская полька
T:Итальянская полька Italian Polkka 
T:Serge ï Rachmaninov 
C:Sergei Rachmaninoff
%%score { ( 1 4 ) | ( 2 3 ) }
L:1/8
Q:1/4=60
M:2/4
K:Gb
V:1 treble nm="Piano à queue" snm="Pia."
V:4 treble 
V:2 treble 
V:3 treble 
V:1
"^Allegretto" z2 z/!pp!!8va(! (b/e'/g'/ |"_Delicato" b')(b'/c''/ .b').g' | .a'.b' !tenuto!b'2 | %3
 (b'b'/c''/ .b').f' | .g'.b' !tenuto!b'2 |!<(! .e''.e'' .e''.e''!<)! | e''/d''/c''/b'/ .a'c'' | %7
 .b'.b' .b'.b' | b'/a'/g'/f'/ e'/b/e'/g'/ | .b'b'/c''/ .b'.g' | .a'.b' b'/b/=d'/f'/ | %11
 .b'b'/c''/ .b'.f' | .g'.b' b'/e'/g'/b'/ | .e''.e'' .e''.e'' | .e''.e''/.d''/ .c''/.b'/.a'/.c''/ | %15
 .b'/.=a'/.b'/.a'/ .b'/.c''/.=c''/.=d''/ | e''/_c''/b'/g'/ e'/!8va)![Q:1/4=63]B/e/g/ | %17
 bb/c'/[Q:1/4=65] .bg | .a.b b2 |[Q:1/4=67] bb/c'/ .bf | .g[Q:1/4=70].[B=db] [dfb]2 | e'e' e'e' | %22
 e'/d'/c'/b/ ac' | .b.[Bb] .[Bb].[Bb] | b/a/g/f/ e/B/e/g/ | [eb]b/c'/ bg | .a.b b2 | %27
 bb/c'/ b/f/_f/=f/ | .g.b b/=c'/d'/=d'/ | e'e' e'e' | e'/d'/c'/b/ ac' | %31
 [Bb]/[=A=a]/[Bb]/[Aa]/ [Bb]/[cc']/[=c=c']/[=d=d']/ | [egbe']2 z/ e/b/e'/ || %33
[K:Eb] .[bg']/.[af']/.[ge']/.[fd']/ .[ec']/.[db]/.[ca]/.[Bg]/ | %34
[Q:1/4=73] .[=A^f]/.[Bg]/.[cf]/.[Bg]/[Q:1/4=75] .[Af]/.[Bg]/.[ca]/.[db]/ | %35
 .[ec']/.[db]/.[ca]/.[Bg]/ .[ca]/.[Bg]/.[Af]/.[Ge]/ | %36
[Q:1/4=78] .[Fd]/.[Ge]/.[Af]/.[Bg]/ .[ca]/.[db]/.[ec']/.[fd']/ | %37
 .[af']/.[ge']/.[fd']/.[ec']/ .[db]/.[ca]/.[Bg]/.[Af]/ | %38
 .[G=e]/.[Ff]/.[=Eg]/.[Ff]/ .[Ge]/.[Af]/.[Bg]/.[ca]/ | %39
 .[db]/.[ca]/.[Bg]/.[Af]/ .[Bg]/.[Af]/.[Ge]/.[Fd]/ | %40
 [Ee]/[Ff]/[Gg]/[Aa]/ [Bb]/[cc']/[=dd']/[ee']/ | %41
 .[e'g']/[Q:1/4=80].[d'f']/.[c'e']/.[bd']/ .[ac']/.[gb]/.[fa]/[Q:1/4=82].[eg]/ | %42
 .[d^f]/.[eg]/.[df]/[Q:1/4=84].[eg]/ .[df]/.[eg]/.[=fa]/.[gb]/ | %43
 .[ac']/[Q:1/4=85].[gb]/.[fa]/.[eg]/ .[fa]/.[eg]/.[df]/.[ce]/ | %44
 .[Bd]/.[ce]/.[Bd]/.[=A^c]/ .[Bd]/[bd']/[=ac']/[gb]/ | %45
 .[f=a]/.[gb]/.[fa]/.[=e^g]/ .[fa]/[=ge']/[fd']/[_ec']/ | %46
 .[db]/.[_ec']/.[db]/.[^c=a]/ .[db]/[_af']/[ge']/[fd']/ | %47
 [ec']/[db]/[c=a]/[Bg]/ [=Af]/[Ge]/[Fd]/[Ec]/ | [DB][Fd]/[Bf]/ [db][Bb]/[Bb]/ | %49
 !tenuto![=A=a][Bb] !tenuto![Aa][Bb] | [_A_a]/=d/f/b/ b'[Bb]/[Bb]/ | %51
 !tenuto![=A=a][Bb] !tenuto![Aa].[Bb] | [Gceg]/B/e/b/ b'.[cb]/.[db]/ | %53
 [ge']/[fd']/[bg']/[af']/ [ge']/[bd']/[=ac']/[gb]/ | [dd'][fa] [fa]/[ac']/[gb]/[eg]/ | %55
 [cc']/[Ee]/[Ff]/[_G_g]/ [=A=g]/[_Aa]/[=A=a]/[Bb]/ | !tenuto![=A=a][Bb] !tenuto![Aa].[Bb] | %57
 [_A_a]/d/=f/b/ b'[Bb]/[Bb]/ | !tenuto![=A=a][Bb] !tenuto![Aa].[Bb] | %59
 [G=ceg]/G/e/b/ b'[_db]/[=db]/ | [ge']/[fd']/[bg']/[af']/ [ge']/[fd']/[d=b]/[fd']/ | %61
 [fd']/[ec']/[c=b]/[ec']/ [Af]/[Bg]/[d_b]/[ca]/ | %62
 [Bg]/[ca]/[^c=a]/[db]/ [e_c']/[=e=c']/[f_d']/[^f=d']/ | [ge'] z z/ B,/E/[D_G]/ || %64
[K:Gb][Q:1/4=87] b>c' b[Q:1/4=90]g | a[Q:1/4=93]b b2 |[Q:1/4=95] b>c'[Q:1/4=98] bf | %67
[Q:1/4=100] gb b2 | e'e' e'e' | [c'e']/[bd']/[ac']/[eb]/ ac' | bb[Q:1/4=95] bb[Q:1/4=80] | %71
 b/[Q:1/4=75]a/g/[Q:1/4=70]f/ e/[Q:1/4=65]B/[=Ae]/[_Ag]/ | %72
[Q:1/4=70] .bb/[Q:1/4=80]c'/ .[Bb][Q:1/4=90].[Gg] |[Q:1/4=100] .[Aa].[Gb] [Bb] z | %74
 .[Bb][Bb]/[_cc']/ .[Bb].[Ff] | .[Gg].[Gb] [Gb] z | e'2 e'2 | e'3 c' | %78
 [Bb]/[c=a]/[=cb]/[da]/ [=db]/[ec']/[_fd']/[=f=d']/ | %79
 [ge']/[Q:1/4=103] x/ x[Q:1/4=105] (6:4:6g/a/=a/b/[Q:1/4=108]=c'/=d'/ || %80
[K:Eb][Q:1/4=110] .[e'g']/.[d'f']/.[c'e']/.[bd']/ .[ac']/.[gb]/.[fa]/.[eg]/ | %81
 .[d^f]/.[eg]/.[df]/.[eg]/ .[df]/.[eg]/.[=fa]/.[gb]/ | %82
 .[ac']/.[gb]/.[fa]/.[eg]/ .[fa]/.[eg]/.[df]/.[ce]/ | %83
 .[Bd]/.[ce]/.[df]/.[eg]/ .[fa]/.[gb]/.[ac']/.[bd']/ | %84
 .[d'f']/.[=c'_e']/.[bd']/.[ac']/ .[gb]/.[fa]/.[eg]/.[df]/ | %85
 .[^c=e]/.[df]/.[ce]/.[df]/ .[ce]/.[df]/.[eg]/.[fa]/ | %86
 .[gb]/.[fa]/.[eg]/.[df]/ .[eg]/.[df]/.[ce]/.[_cd]/ | %87
 [Ge]/[Af]/[Bg]/[ca]/ [db]/[ec']/[fd']/[ge']/ | [bg']/[af']/[ge']/[fd']/ [ec']/[db]/[ca]/[Bg]/ | %89
 [=A^f]/[Bg]/[Af]/[Bg]/ [Af]/[Bg]/[ca]/[db]/ | [ec']/[db]/[ca]/[Bg]/ [ca]/[Bg]/[Af]/[Ge]/ | %91
 [Fd]/[Ge]/[Fd]/[=E^c]/ (6:4:6[Fd]/b/=a/_a/g/_g/ | (6:4:6f/=A/c/e/=e/g/ (6:4:6f/=a/e'/d'/c'/=b/ | %93
 (6:4:6b/d/f/_g/=a/c'/ (6:4:6b/b'/a'/g'/f'/_f'/ | (6:4:6c'/b/_b/=a/g/_g/ (6:4:6f/=e/_e/d/c/_c/ | %95
 [Bb]2 z [Bb]/[Bb]/ | .[=A=a].[Bf_ab] .[Aega].[_Be_g_b] | (6:4:6[_A_a]/B/d/f/a/b/ b'[Bb]/[Bb]/ | %98
 [=A=a][Begb] [Ad^fa][B_d=fb] | (6:4:6[Gg]/B/c/e/g/b/ b'[Bb]/[Bb]/ | %100
 [ee']/[dd']/[gg']/[ff']/ [ee']/[dd']/[cc']/[Bb]/ | [dd'][fa] [fa]/[dd']/[cc']/[Bb]/ | %102
 [dd']a .a/[=cc']/[Bb]/[Aa]/ | [cegc'][eg] [eg]"_subito".[_db]/.[=db]/ | .[e=a].[gb] .[ea].[gb] | %105
 (6:4:6_a/b/=b/c'/_d'/=d'/ (5:4:5b'/d'/c'/.[e_b]/.[=eb]/ | .[f=a].[_ab] .[f=a].[_ab] | %107
 (6:4:6g/a/=a/b/=b/c'/ (6:4:6b'/c'/_c'/_b/a/_a/ | %108
 (6:4:6g/b/e'/!8va(!g'/a'/=a'/ (6:4:6b'/g''/f''/e''/d''/c''/ | %109
 (6:4:6=b'/c''/_a'/f'/d'/c'/!8va)! (6:4:6_c'/a/e/_c/_d/=d/ | %110
 (6:4:6e/=e/f/_g/=g/a/ (6:4:6=a/b/=b/c'/_d'/=d'/ | %111
 (6:4:6e'/b/g/e/[I:staff +1]c/B/!8va(![I:staff -1] (6:4:6_c'/_d'/=d'/e'/f'/^f'/ | %112
 (6:4:6[bg']/e'/c'/b/!8va)![I:staff +1]g/e/!8va(![I:staff -1] [e'_c'']/[=e'=c'']/[f'_d'']/[^f'=d'']/!8va)! | %113
!8va(! (6:4:5!>![e'g'e'']!8va)!G/A/B/c/ (6:4:6d/e/f/g/a/b/ | %114
 (6:4:6b/c'/d'/!8va(!e'/f'/g'/ (6:4:6a'/b'/c''/d''/e''/f''/ | [g'b'g'']!8va)! z[Q:1/4=70] E2- | %116
[Q:1/4=60] E2-[Q:1/4=35] E/B,/[Q:1/4=30]E/_G/ |[Q:1/4=25] z[Q:1/4=20] [Be_gb]2 z | %118
 [Beb]<!8va(![e'b']!8va)! z/[Q:1/4=50] B/e/_g/ ||[K:Gb][Q:1/4=60] b[Bb]/[cc']/ .[Bb].[Bb] | %120
 [egbe']2[Q:1/4=60]!8va(!{b'=c''=d''} e''!8va)! !fermata!z[Q:1/4=10] |] %121
V:2
 z4 | z .[egb] z .[Bgb] | z .[fab] !tenuto![ab=d']2 | z .[Bab] z .[=dab] | %4
 z .[egb] !tenuto![gbe']2 | z .[egbe'] z .[d=gbe'] | z .[ceae'] z2 | B.[f=d'] .[ge'].[af'] | %8
 z [bg'] z2 | e.[gb] .B.[gb] | .f.[ab] B.[ab] | .f.[ab] .B.[ab] | .e.[gb] B.[gb] | %13
 .e.[gbe'] .d.[=gbe'] | .e'/.d'/.c'/.b/ .a.c' | B.[c'a'] .[bg'].[af'] | [ge']B [eg]/ z/ z | %17
[K:bass] [E,,B,,G,][G,B,E] [G,,E,B,][B,EG] | [F,,B,,A,][A,B,F] [A,B,FA]2 | %19
 [F,,B,,A,][A,B,F] B,,[A,B,=D] | [E,,B,,G,][G,B,] [=DF][=CE] | [E,B,G][B,EG] [D,B,=G][B,EG] | %22
 [C,A,E][CEA] F,,[A,CE] | B,,,[F,A,B,=D] [G,B,=CE][A,B,DF] | G4 | %25
 [G,B,E].[E,,B,,G,] [B,EG].[G,,E,B,] | x2 z/ F/_F/E/ | [F,A,B,=D].[F,,B,,A,] [A,B,=F].B,, | %28
 x2 z/ G/F/_F/ | [G,B,E]/B,,/G,/E/- [=G,DE]/__B,,/G,/E/- | [F,CE]/A,,/F,/C/ [F,C]/-E/-[F,CE] | %31
 D[=CEG] [_C=DA][B,DA] | [B,EG]2 z2 ||[K:Eb] .E,,.[B,EG] .B,,.[B,EG] | .E,.[B,DG] .B,,.[B,DG] | %35
 .E,,.[B,CG] .C,.[B,C] | z G =E_E | .B,,.[A,CF] .F,.[A,CF] | .B,,.[A,C=E] .F,,.[A,CE] | %39
 .B,,.[A,C_E] .F,,.[F,=B,] | [G,,F,=B,][_G,,_F,_B,] [F,,E,_A,][_F,,_C,A,] | %41
 .[E,,B,,G,].[G,B,E]/.[G,B,E]/ .[B,,,B,,].[G,B,E] | %42
!8vb(! .[E,,,E,,]!8vb)!.[G,B,D]/.[G,B,D]/ .[B,,,B,,].[G,B,D] | %43
 .[E,,E,].[G,B,C]/.[G,B,C]/ .[C,,C,].[G,B,E] | .[F,,F,].[F,B,D]/.[F,=A,^C]/ .[F,B,D] z | %45
 .[F,,F,].[=A,EF]/.[A,_E=E]/ .[A,_EF].F, | .F,,.[B,DF]/.[B,=DE]/ .[B,DF].[=B,,A,D] | %47
 .[C,G,_E].[_B,EG] .[F,,E,=A,].[F,A,E] | [B,,,F,,]B,/D/ [B,F] z | [=A,D^F]2 [_A,_D=F]2 | %50
 .[F,,B,,=D,A,].[A,=DF] .[B,,,B,,].[A,DF] | B,,[=A,D^F] B,,,[_A,D=F] | %52
 .[E,,B,,G,].[G,CE] .[B,,,B,,].[A,CF] | .[E,,B,,G,].[B,EG] .[G,,E,B,].[_G,,E,=A,] | %54
 z/ D/E/=E/ F z | [E,,B,,G,][B,CE] [^A,_CE][_A,B,D^F] | [G,CEG]2 [^F,=B,D^F]2 | %57
 [^F,,_B,,D,A,][F,A,D] [B,,,B,,][F,A,D] | B,,[=A,^CG] [B,,,B,,][_A,=CDA] | %59
 [E,,B,,G,][CEGB] [B,,,B,,]^F, | G,B, =B,D | CD EF | D_D C_C | [G,B,E] z x2 || %64
[K:Gb] [E,,B,,G,][G,B,E] [G,,E,B,][B,EG] | [F,,B,,A,][A,EF] (6:4:6[B,,=D,]/E,/_F,/=F,/G,/=G,/ | %66
 [F,,B,,=D,A,][A,CF] [B,,A,C][A,C=D] | [E,,B,,G,]_D =C_C | %68
 (6:4:6[E,B,]/E/G/[I:staff -1]B/e/g/[I:staff +1] (5:4:4[D,B,]/E/=G/B | %69
 (6:4:6C,/A,/E/[K:treble]F/G/=G/ Ac |[K:bass] (3B,,/A,/=D/[A,DF] [B,=CEG][CDFA] | [_DEGB]2 =C z | %72
 (6:4:6E,,/B,,/F,/G,/A,/=A,/ (6:4:6[G,B,]/F,/_F,/E,/B,,/G,,/ | %73
 (6:4:6F,,/B,,/=D,/A,/=A,/B,/ (5:4:4_D/=D/=E/F | %74
 (6:4:6B,,/A,/B,/C/=C/D/ (6:4:6[=DF]/_D/C/_C/B,/A,/ | %75
 (6:4:6G,/B,,/E,/F,/G,/A,/ (6:4:6B,/=C/=D/E/_F/=F/ | G2 =G2 | z A =A2 | %78
 (6:4:6B,,/F,/A,/C/=C/D/ (6:4:6=D/E/F/G/A/=A/ | z4 ||[K:Eb][K:treble] z{/=A} B2 B | %81
 z!8va(!{/=a'} b'2!8va)! B | z{/=A} B2 B | z!8va(!{/=a'} b'2!8va)! B | z{/=A} B2 B | %85
 z!8va(!{/=a'} b'2!8va)! B | z{/=A} B2{/G} _A | %87
 [EB]/[K:bass][D,D]/[_D,_D]/[C,C]/ [_C,_C]/[B,,B,]/=A,/_A,/ | %88
 [E,,B,,G,][G,B,E]/[G,B,E]/ [B,,,B,,][G,B,E] | [E,,,E,,][G,B,D]/[G,B,D]/ [B,,,B,,][G,B,D] | %90
 [E,,E,][G,B,C]/[G,B,C]/ [C,,C,][G,B,E] | [F,,F,][F,B,D]/[F,=A,^C]/ [F,B,D]/ z/ z | %92
{/=E,} F,[CE=A]/[CE^G]/ [CEA]F, | F,[D_GB]/[DFB]/ [DGB][_D,A,_DA] | %94
 [C,G,B,=E][B,E=A] [F,,C,E,=A,][A,_EF] | (6:4:6B,,,/F,,/B,,/D,/F,/=A,/ !^!B, z | %96
 z .[_C_DFA] .[B,=CEG].[__B,_CE_G] | [A,_B,=DF]A!8vb(! [B,,,,B,,,] z!8vb)! | %98
 z [B,CEG] [=A,=B,D^F][_A,_C_D=F] | [G,_B,=CE]G [B,,,B,,][A,CEG] | %100
 [E,,B,,G,][G,B,E] [G,,C,E,B,][^F,,C,E,=A,] | (6:4:6[=F,,B,,]/D,/_A,/B,/C/^C/ [A,D]=E, | %102
 (6:4:6[F,B,]/D/[K:treble]A/B/c/^c/ [Ad][K:bass]^F, | %103
 (5:4:4[B,,G,]/E,/B,/[=B,E] (5:4:4[CEG]_D/C/!p!_C/ | %104
 (6:4:6B,/=C/=D/E/F/^F/[K:treble] (6:4:6G/B/c/d/e/=e/ | .f/.d/.B/.A/ (5:4:5.F/.D/B,/C/_D/ | %106
 (6:4:6=D/E/=E/F/_G/=G/ (6:4:6A/B/=B/c/_d/=d/ | .e/.c/.B/.G/ .E/.C/[K:bass][B,,B,]/[A,B,]/ | %108
 E/D/G/F/ E/D/=B,/D/ | D/C/=B,/C/ F,/G,/_B,/A,/ | G,/A,/=A,/B,/ _C/=C/_D/=D/ | %111
 x2[K:treble]!<(! _c/=c/_d/=d/!<)! | [EGe] z!<(! (6:4:6B/=A/_A/G/F/_F/!<)! | %113
!ff! (5:4:4E[K:bass]E,/F,/G,/ (6:4:6A,/B,/C/D/E/F/ | %114
[K:treble] (6:4:6G/A/B/c/d/e/ (6:4:6f/g/a/b/c'/d'/ | e' z!>(! z[K:bass] [G,B,-] | B,4!>)! | %117
 z [_G,B,E_G]2 z | [_G,B,CE_G]2!p! z2 ||[K:Gb] B,,.[C=DA] .[B,DG].[A,B,DF] | %120
 .[G,B,E][E,,B,,G,][K:treble]!pp!!8va(! [gb=c'e'g'] !fermata!z!8va)! |] %121
V:3
 x4 | x4 | x4 | x4 | x4 | x4 | x4 | x4 | x4 | x4 | x4 | x4 | x4 | x4 | [cea] z z2 | x4 | x4 | %17
[K:bass] x4 | x4 | x4 | x2 [G,B,]2 | x4 | x4 | x4 | [B,=CE]2 [__B,_CE][A,_B,=D] | x4 | %26
 [A,EF].[F,,B,,A,] [F,A,B,]2 | x4 | [G,B,F].[E,,B,,G,] [G,B,]2 | x4 | x4 | B,,2 G,F,- | %32
 F,/G,/E,/C,/ B,,/A,,/G,,/F,,/ ||[K:Eb] x4 | x4 | x4 | F, [A,C]3 | x4 | x4 | x4 | x4 | x4 | %42
!8vb(! x!8vb)! x3 | x4 | x4 | x4 | x4 | x4 | x4 | x4 | x4 | x4 | x4 | x4 | %54
 [F,,B,,D,_A,]/ z/ z [A,D]B,, | x4 | x4 | x4 | x4 | x4 | [E,,B,,]2 [G,,F,]2 | %61
 [A,,E,F,]2 [C,F,A,]2 | [B,,E,G,]2 [B,,A,]2 | z/ B,,/E,/G,/ B,[B,,A,] ||[K:Gb] x4 | x4 | x4 | %67
 x [G,B,]3 | x4 | x[K:treble] x3 |[K:bass] x4 | x4 | x4 | x4 | x4 | x4 | %76
 G/E/[E,B,]/E/ =G/E/[D,B,]/E/ | [=C,A,]/E/A/E/ =A/E/[F,_C] | x4 | x4 ||[K:Eb][K:treble] E z B, z | %81
 E!8va(! z!8va)! B, z | E z B, z | F!8va(! z!8va)! B, z | F z B, z | F!8va(! z!8va)! B, z | %86
 D z B, z | x/[K:bass] x7/2 | x4 | x4 | x4 | x4 | x4 | x4 | x4 | x4 | x4 | x2!8vb(! x2!8vb)! | x4 | %99
 x4 | x4 | x4 | x2/3[K:treble] x7/3[K:bass] x | x4 | x2[K:treble] x2 | x4 | x4 | x3[K:bass] x | %108
 [E,G,] z G, z | A, z A,, z | B,, z [B,,_A,] z | [E,G,E][K:treble] z [B,A]2 | x4 | %113
 x4/5[K:bass] x16/5 |[K:treble] x4 | x3[K:bass] x | [^F,=A,][=F,_A,]!mf! [_F,G,]2 | %117
 [_C,,_G,,E,]3{D,_D,} [A,,,E,,=C,]- | [A,,,E,,C,]2 x2 ||[K:Gb] z4 | x2[K:treble]!8va(! x2!8va)! |] %121
V:4
 x5/2!8va(! x3/2 | x4 | x4 | x4 | x4 | x4 | x4 | x4 | x4 | x4 | x4 | x4 | x4 | x4 | x4 | x4 | %16
 z2 z/!8va)! G/[=A=c]/[B-=d]/ | [Be]>_c =c2- | c=c [ce][B=d] | =c>d =d2- | dB Be | [egb]2 [e=gb]2 | %22
 ea/=g/ _g/f/_f/e/ | =dd ef | Be/=d/ _d/=c/_c/B/- | B>c =c/e/=d/_d/ | =c3 z | =c>d =d/f/_f/e/ | %28
 =d3 z | [Bgb]2 [d=gc']2 | [ceb]e/d/ c/B/[I:staff +1]A/=G/ | %31
[I:staff -1] [_Ge][Begb] [B=dgb][=c_a] | x4 ||[K:Eb] x4 | x4 | x4 | x4 | x4 | x4 | x4 | %40
 [G=B][_B_d_f] [eg][^fb] | x4 | x4 | x4 | x4 | x4 | x4 | x4 | x4 | !tenuto![d^f]2 !tenuto![_d=f]2 | %50
 x4 | !tenuto![d^f]2 !tenuto![_d=f]2 | x4 | x4 | x4 | [eg][ce] [ce][d^f] | %56
 !tenuto![eg]2 !tenuto![d^f]2 | x4 | !tenuto![^c=e]2 !tenuto![df]2 | x4 | x4 | x4 | x4 | x4 || %64
[K:Gb] (6:4:6B/c/=c/d/=d/c'/ (6:4:6e/=e/f/g/f/_f/ | (6:4:6_e/=d/_d/=c/d/c/ (5:4:4_c/=c/_c/B- | %66
 (6:4:6B/c/=c/d/=d/c'/ (6:4:6d/e/=e/f/e/f/ | (6:4:6g/e'/=d'/_d'/=c'/_c'/ (6:4:6b/=a/_a/g/e/B/ | %68
 x2 (6:4:6=g/a/=a/b/c'/d'/ | z2 (6:4:6c/d/=d/e/_f/=f/ | (5:4:4a z/ A/=A/ (6:4:6B/=c/d/=d/e/f/ | %71
 (6:4:6g/e/=d/_d/=c/_c/ (6:4:6B/F/E/[I:staff +1]_C/B,/B,,/ |[I:staff -1] G/A/B/c/ =c/e/=d/_d/ | %73
 =c/d/=d/e/ =e/f/(3A/B/_c/ | =c/d/=d- d/_d/=c/_c/ | B/c/=c/d/ =d/e/=e/f/ | %76
 (6:4:6[eg]/b/g/B/g/b/ (6:4:6[e=g]/b/g/B/g/b/ | %77
 (6:4:6[ea]/=d'/_d'/=c'/_c'/b/ (6:4:6=a/_a/=g/_g/f/_f/ | e/ x7/2 | (6:4:6B/=c/=d/e/=e/f/ x2 || %80
[K:Eb] x4 | x4 | x4 | x4 | x4 | x4 | x4 | x4 | x4 | x4 | x4 | x4 | x4 | x4 | x c'2 f | x4 | x4 | %97
 x4 | x4 | x4 | x4 | x4 | (5:4:4z d/e/=e/ f/ z/ z | (5:4:4z G/A/=A/ (5:4:4_B/=B/c/ z | x4 | x4 | %106
 x4 | x4 | x!8va(! x3 | x2!8va)! x2 | x4 | x2!8va(! x2 | x4/3!8va)! x2/3!8va(! x2!8va)! | %113
!8va(! x2/3!8va)! x10/3 | x!8va(! x3 | x!8va)! x3 | x4 | [_G,B,EB]3 [_G,CEB]- | [G,CEB]2 x2 || %119
[K:Gb] z [=da] [dg][df] | x2!8va(! x!8va)! x |] %121

